X:14
T:The Dingle Dance
T:Albert Falmer's Bonfire Tune
M:4/4
L:1/4
Q:80
N:The Dingle is on the Winterbourn Down map!
N:.
Z:Brian Martin
K:D
"(Albert Falmer's Bonfire Tune)"
d/e/|f>d AF|GG/F/G2|e/d/c/A/Bc|d/f/f/d/Ad/e/|!
f>d AF|GG/F/G2|e/d/c/A/Bc|d2d:||!
d/e/|ff/d/ff/d/|g/e/f/d/e>f|g/f/e/d/ c/A/B/c/|d/f/f/d/Ad/e/|!
 ff/d/ff/d/|g/e/f/d/e>f|g/f/e/d/ c/A/B/c/|dd/c/d:||
